Images/Testimonial/g2-logo.svg

<svg width="65" height="68" viewBox="0 0 65 68" fill="none" xmlns="http://www.w3.org/2000/svg">
<g clip-path="url(#clip0_0_48582)">
<path d="M45.9154 47.9474C48.3547 52.24 50.7668 56.4838 53.1771 60.723C42.504 69.0093 25.8986 70.0107 13.606 60.4683C-0.540123 49.4785 -2.86517 30.7266 4.70845 17.2282C13.4192 1.70209 29.7199 -1.73159 40.2152 0.786198C39.9314 1.41151 33.6454 14.6359 33.6454 14.6359C33.6454 14.6359 33.1485 14.669 32.8674 14.6745C29.7652 14.8078 27.4547 15.5398 24.9782 16.8383C22.2612 18.276 19.9327 20.3667 18.1965 22.9277C16.4602 25.4887 15.3688 28.4419 15.0179 31.5294C14.6517 34.6604 15.0787 37.8345 16.2584 40.7518C17.2559 43.218 18.6669 45.4085 20.5585 47.2577C23.4602 50.0974 26.9133 51.8556 30.916 52.4377C34.7064 52.9894 38.3518 52.4432 41.7677 50.7024C43.049 50.0505 44.139 49.3304 45.413 48.3428C45.5753 48.2362 45.7195 48.101 45.9154 47.9474Z" fill="#FF492C"/>
<path d="M45.9395 10.3008C45.3201 9.68289 44.7461 9.11275 44.1748 8.53894C43.8339 8.19686 43.5056 7.84099 43.1565 7.50718C43.0314 7.38672 42.8845 7.22211 42.8845 7.22211C42.8845 7.22211 43.0033 6.96647 43.054 6.86164C43.7223 5.50159 44.7697 4.50753 46.012 3.7167C47.3858 2.83556 48.9863 2.38723 50.6113 2.42838C52.6906 2.46976 54.6239 2.99484 56.2553 4.40914C57.4595 5.45286 58.077 6.77704 58.1859 8.35779C58.3672 11.0245 57.2791 13.0669 55.1181 14.4923C53.8486 15.3309 52.4793 15.9792 51.1064 16.747C50.3493 17.171 49.7018 17.5434 48.9619 18.3103C48.3108 19.08 48.279 19.8055 48.279 19.8055L58.1151 19.7927V24.2351H42.9325C42.9325 24.2351 42.9325 23.9317 42.9325 23.8057C42.8745 21.6226 43.1257 19.5683 44.1114 17.5857C45.0182 15.7668 46.4273 14.4352 48.1203 13.4099C49.4243 12.62 50.7972 11.9478 52.1039 11.1616C52.9101 10.6769 53.4796 9.96612 53.475 8.93528C53.475 8.05065 52.8403 7.26441 51.9335 7.01889C49.7952 6.43404 47.6189 7.36741 46.4872 9.35184C46.3221 9.64151 46.1535 9.92934 45.9395 10.3008Z" fill="#FF492C"/>
<path d="M64.965 43.2258L56.676 28.7095H40.2728L31.9302 43.3757H48.454L56.608 57.8231L64.965 43.2258Z" fill="#FF492C"/>
</g>
<defs>
<clipPath id="clip0_0_48582">
<rect width="64.5" height="67.2447" fill="white" transform="translate(0.465088 0.0375977)"/>
</clipPath>
</defs>
</svg>

<svg xmlns="http://www.w3.org/2000/svg" width="65" height="68" fill="none"><g fill="#FF492C" clip-path="url(#a)"><path d="m45.915 47.947 7.262 12.776c-10.673 8.286-27.278 9.288-39.571-.255C-.54 49.478-2.865 30.727 4.708 17.228 13.42 1.702 29.72-1.732 40.215.786c-.284.626-6.57 13.85-6.57 13.85s-.497.033-.778.039c-3.102.133-5.412.865-7.889 2.163a18.85 18.85 0 0 0-6.782 6.09 19.192 19.192 0 0 0-3.178 8.601 18.788 18.788 0 0 0 1.24 9.223c.998 2.466 2.409 4.656 4.3 6.506 2.902 2.84 6.355 4.598 10.358 5.18 3.79.551 7.436.005 10.852-1.736 1.281-.651 2.371-1.372 3.645-2.36.162-.106.306-.241.502-.395Z"/><path d="M45.94 10.3c-.62-.617-1.194-1.187-1.765-1.761-.341-.342-.67-.698-1.018-1.032-.126-.12-.272-.285-.272-.285s.118-.256.169-.36c.668-1.36 1.716-2.354 2.958-3.145a8.135 8.135 0 0 1 4.6-1.289c2.079.042 4.012.567 5.643 1.981 1.204 1.044 1.822 2.368 1.93 3.949.182 2.666-.906 4.709-3.067 6.134-1.27.839-2.639 1.487-4.012 2.255-.757.424-1.404.796-2.144 1.563-.651.77-.683 1.495-.683 1.495l9.836-.012v4.442H42.932v-.43c-.058-2.182.194-4.237 1.18-6.22.906-1.818 2.315-3.15 4.008-4.175 1.304-.79 2.677-1.462 3.984-2.248.806-.485 1.376-1.196 1.371-2.227 0-.884-.635-1.67-1.541-1.916-2.139-.585-4.315.348-5.447 2.333-.165.29-.334.577-.547.949ZM64.965 43.226l-8.289-14.517H40.273L31.93 43.377h16.524l8.154 14.447 8.357-14.597Z"/></g><defs><clipPath id="a"><path fill="#fff" d="M.465.038h64.5v67.245H.465z"/></clipPath></defs></svg>
